X: 211	% 57
T: Put Me In My Little Bed
O: My Mother's Favorite
S: Viola Ruth "Pioneer Western Folk Tunes" 1948 p.21 #1
R: song, march
Z: 2019 John Chambers <jc:trillian.mit.edu>
M: 4/4
L: 1/8
K: G
V: 1 name="57"
D2 |\
B3d (GFEG) | c6 A2 | F3G (MAMA)(McMc) | B6 D2 |\
B3d (GFEG) | c6 A2 | F3G (A^GAB) | G6 ||
D2 |\
B>^A B3D B^A | B3B =A3A | (BAGE) D3D | B3d (GFEG) |\
c6 A2 | F3G (A^GAB) | G6 :|
